X:1
T:Shenzhen, 76.76.76 D
T:Shenzhen, 76.76.76 D
T:William Fiske Sherwin, 1881
T:Public Domain Courtesy of the Cyber Hymnal™
C:William Fiske Sherwin, 1881
Z:Public Domain
Z:Courtesy of the Cyber Hymnal™
%%score ( 1 2 ) ( 3 4 )
L:1/8
M:4/4
K:Bb
V:1 treble 
V:2 treble 
V:3 bass 
V:4 bass 
V:1
 [Fd]2 | [Ec]2 [Fd]2 [Ec]2 [DB]2 | ([CA]2 [EG]2) [DF]2 [FA]2 | [EG]2 [GB]2 [Ge]2 [EG]2 | %4
 [DF]4 z2 [Fd]2 | [Ec]2 [Fd]2 [Ec]2 [DB]2 | ([CA]2 [EG]2) [DF]2 [FB]2 | [FA]2 [Fc]2 [=EB]2 [EG]2 | %8
 F4 z2 F2 | [Ec]2 [D=B]2 [Ec]2 [D_B]2 | [EB]2 [EA]4 [DB]2 | [Fc]2 [F=B]2 [Fc]2 [Fd]2 | %12
 [Fe]6 [Fc]2 | [Ff]2 [Fd]2 [DB]2 [DB]2 | [Ge]2 [Ge]4 [Gc]2 | [FB]2 [DF]2 [Ec]2 [EA]2 | %16
 [DB]4 z2 [Fd]2 | [Ec]2 [Fd]2 [Ec]2 [DB]2 | ([CA]2 [EG]2) [DF]2 [FB]2 | [EG]2 [GB]2 [Ge]2 [EG]2 | %20
 [DF]4 z2 [Fd]2 | [Ff]2 [Fd]2 [DB]2 [DB]2 | [Ge]2 [Ge]4 [Gc]2 | [FB]2 [DF]2 [Ec]2 [EA]2 | [DB]6 |] %25
V:2
 x2 | x8 | x8 | x8 | x8 | x8 | x8 | x8 | F4 F2 x2 | x8 | x8 | x8 | x8 | x8 | x8 | x8 | x8 | x8 | %18
 x8 | x8 | x8 | x8 | x8 | x8 | x6 |] %25
V:3
 [B,,F,]2 | [B,,F,]2 [B,,F,]2 [B,,F,]2 [B,,F,]2 | (F,2 G,A,) [B,,B,]2 [D,B,]2 | %3
 [D,B,]2 [D,B,]2 [D,B,]2 [D,B,]2 | [B,,B,]4 z2 [B,,F,]2 | [B,,F,]2 [B,,F,]2 [B,,F,]2 [B,,F,]2 | %6
 (F,2 G,A,) [B,,B,]2 [B,,D]2 | [C,C]2 [C,A,]2 [C,G,]2 [C,B,]2 | [F,A,]4 z2 F,2 | %9
 [F,A,]2 [F,^G,]2 [F,A,]2 [F,B,]2 | [F,C]2 [F,C]4 [F,B,]2 | [F,A,]2 [F,^G,]2 [F,A,]2 [F,B,]2 | %12
 [F,C]6 [E,A,]2 | [F,B,]2 [F,B,]2 [G,B,]2 [G,B,]2 | [E,B,]2 [E,B,]4 [E,E]2 | %15
 [F,D]2 [F,B,]2 [F,A,]2 [F,C]2 | [B,,B,]4 z2 [B,,F,]2 | [B,,F,]2 [B,,F,]2 [B,,F,]2 [B,,F,]2 | %18
 (F,2 G,A,) [B,,B,]2 [D,B,]2 | [E,B,]2 [E,B,]2 [E,B,]2 [E,B,]2 | [B,,B,]4 z2 [B,,B,]2 | %21
 [D,B,]2 [D,B,]2 [G,B,]2 [G,B,]2 | [E,B,]2 [E,B,]4 [E,E]2 | [F,D]2 [F,B,]2 [F,A,]2 [F,C]2 | %24
 [B,,B,]6 |] %25
V:4
 x2 | x8 | B,,4 x4 | x8 | x8 | x8 | B,,4 x4 | x8 | x6 F,2 | x8 | x8 | x8 | x8 | x8 | x8 | x8 | x8 | %17
 x8 | B,,4 x4 | x8 | x8 | x8 | x8 | x8 | x6 |] %25

